X: 64
T: Aldanma Dünya Varına
C: Zekâî Dede
O: Turkey
F: http://compmusic.upf.edu/node/140
N: acem--ilahi--duyek--aldanma_dunya--zekai_dede
N: makam= acem
N: form= ilahi
N: usul= duyek = 8/4
M: 8/4
L: 1/16
K: C _1/4B   
Q: 1/4=168
%%MIDI tuningsystem comma53
c4 f3e gf fe f4  | f2 ef e2 d2 ef ed c4  | \
w:  Al dan *  ma   |  *  dün  | 
d2 e2 f2 g2 f3e d2 f2  | 
w:  ya  *  *  *  vâ *  *  rı  | 
e2 d2 cf ed d4 z4  | A4 f4 gf fe f4  | \
w:  na    |  Ko ma  i  | 
f2 ef e2 d2 ef ed c4  | 
w:  *  şin  *  *  e fen *  *  *  dim   | 
d2 cd e2 dc c3_2/4B B2 c2  | _2/4B2 A2 G3/2c/ BA A4 z4  | \
w:  sen  *  *  *  *  *  yâ *  *  rı  |  na    | 
G2 c2 c4 dc c_2/4B c4  | 
w:  Dön *  dür  yü  | 
c2 a2 g2 f2 ef ed c4  | d2 e2 f2 g2 f3e d2 f2  | \
w:  *  zün   |  dî *  *  *  dâ *  *  rı  | 
e2 d2 cf ed d4 z4  | 
w:  na    | 
A4 f4 gf fe f4  | f2 ef e2 d2 ef ed c4  | \
w:  Hak kı  zik  |  *  ret_ *  *  e fen *  *  *  dim   | 
d2 cd e2 dc c3_2/4B B2 c2  | 
w:  tev *  *  *  *  *  hîd  *  *  i  | 
_2/4B2 A2 G3/2c/ BA A4 z4  | c4 f3e gf fe f4  | \
w:  le    |  Al dan *  ma   | 
f2 ef e2 d2 ef ed c4  | 
w:  *  dün  | 
d2 e2 f2 g2 f3e d2 f2  | e2 d2 cf ed d4 z4  | \
w:  ya  *  *  *  vâ *  *  rı  |  na    | 
A4 f4 gf fe f4  | 
w:  Ko ma  i  | 
f2 ef e2 d2 ef ed c4  | d2 cd e2 dc c3_2/4B B2 c2  | \
w:  *  şin  *  *  e fen *  *  *  dim   |  sen  *  *  *  *  *  yâ *  *  rı  | 
_2/4B2 A2 G3/2c/ BA A4 z4  | 
w:  na    | 
G2 c2 c4 dc c_2/4B c4  | c2 a2 g2 f2 ef ed c4  | \
w:  Dön *  dür  yü  |  *  zün   | 
d2 e2 f2 g2 f3e d2 f2  | 
w:  dî *  *  *  dâ *  *  rı  | 
e2 d2 cf ed d4 z4  | A4 f4 gf fe f4  | \
w:  na    |  Hak kı  zik  | 
f2 ef e2 d2 ef ed c4  | 
w:  *  ret_ *  *  e fen *  *  *  dim   | 
d2 cd e2 dc c3_2/4B B2 c2  | _2/4B2 A2 G3/2c/ BA A4 z4  | |


